X:22
T:Dave & Linnea's Wedding
M:4/4
L:1/8
C:© Paul Gitlitz 2001
R:Reel
B:Hunters and Gatherers
N:Written for two dear friends.
K:G
"Gmaj7"d2BA GABe-|"Em7"e B2A GA B2|"Bm"d2BA GABe-|"Cmaj7"edef "D7"edBA|!
"Gmaj7"d2BA GABe-|"Em7"e B2A GA B2|"C6"edeg "Cmaj7"edBG|[1"D7"ABAG- "G6"GABc:|[2"D7"ABAG- "G6"GDFD|!
|"C6"E2cE EdEE|cEEd- dEcE|"G6"B2Bc B A3|"G7"G2GA BA G2|!
"A"^c2cd e2ef|"A7"gfga gf e2|"D"d2d2 e2=f2|"D7"f8|!
"C6"E2cE EdEE|cEEd- dEcE|"G6"B2Bc B A3|"G7"G2GA BA G2|!
"A"^c2d_e =e4|"A7".efg^g a3g|"D"f2fg f e3|"D7"d3(B c2^c2|]
